X: 11475
T: Echoes Of Killarney
R: slide
M: 12/8
K: Amajor
|:A3 A2B c2a agf|e2c cBc e2c B2c|
A3 A2B c2a agf|1 e2c BcB A3 A2B:|2 e2c BcB A3 A3||
|:a2g f2e f2g agf|e2c cBc e2c B2c|
a2g f2e f2g agf|1 e2c BcB A3 A3:|2 e2c BcB A3 A2B||

